X:58
T:TROMPEUSE de CHATEAUBRIANT
Z: Yves BELOTTEAU
M:4/4
L:1/8
Q:1/4=60
K:G
|:Gddc/2B/2 AG/2A/2BG|Gddc/2B/2 AAG z :|
|:B3/2c/2BA FABG|B3/2c/2BA FAG z :|
|:Gddc/2B/2 AG/2A/2BG|Gddc/2B/2 AAG z :|
DD|
